source/img/svg-icon/social/facebook-f.svg

<svg fill="#000000" xmlns="http://www.w3.org/2000/svg"  viewBox="0 0 50 50" width="50px" height="50px">
  <path d="M 30.140625 2 C 26.870375 2 24.045399 2.9969388 22.0625 4.9667969 C 20.079601 6.936655 19 9.823825 19 13.367188 L 19 18 L 13 18 A 1.0001 1.0001 0 0 0 12 19 L 12 27 A 1.0001 1.0001 0 0 0 13 28 L 19 28 L 19 47 A 1.0001 1.0001 0 0 0 20 48 L 28 48 A 1.0001 1.0001 0 0 0 29 47 L 29 28 L 36 28 A 1.0001 1.0001 0 0 0 36.992188 27.125 L 37.992188 19.125 A 1.0001 1.0001 0 0 0 37 18 L 29 18 L 29 14 C 29 12.883334 29.883334 12 31 12 L 37 12 A 1.0001 1.0001 0 0 0 38 11 L 38 3.3457031 A 1.0001 1.0001 0 0 0 37.130859 2.3554688 C 36.247185 2.2382213 33.057174 2 30.140625 2 z M 30.140625 4 C 32.578477 4 34.935105 4.195047 36 4.2949219 L 36 10 L 31 10 C 28.802666 10 27 11.802666 27 14 L 27 19 A 1.0001 1.0001 0 0 0 28 20 L 35.867188 20 L 35.117188 26 L 28 26 A 1.0001 1.0001 0 0 0 27 27 L 27 46 L 21 46 L 21 27 A 1.0001 1.0001 0 0 0 20 26 L 14 26 L 14 20 L 20 20 A 1.0001 1.0001 0 0 0 21 19 L 21 13.367188 C 21 10.22255 21.920305 7.9269075 23.472656 6.3847656 C 25.025007 4.8426237 27.269875 4 30.140625 4 z"/>
</svg>

<svg xmlns="http://www.w3.org/2000/svg" width="50" height="50"><path d="M30.14 2c-3.27 0-6.095.997-8.078 2.967C20.08 6.937 19 9.824 19 13.367V18h-6a1 1 0 00-1 1v8a1 1 0 001 1h6v19a1 1 0 001 1h8a1 1 0 001-1V28h7a1 1 0 00.992-.875l1-8A1 1 0 0037 18h-8v-4c0-1.117.883-2 2-2h6a1 1 0 001-1V3.346a1 1 0 00-.87-.99C36.248 2.237 33.058 2 30.14 2zm0 2c2.438 0 4.795.195 5.86.295V10h-5c-2.197 0-4 1.803-4 4v5a1 1 0 001 1h7.867l-.75 6H28a1 1 0 00-1 1v19h-6V27a1 1 0 00-1-1h-6v-6h6a1 1 0 001-1v-5.633c0-3.144.92-5.44 2.473-6.982C25.025 4.843 27.27 4 30.14 4z"/></svg>
